build/admin/icons/scrolling-text.svg

<svg width="170" height="170" viewBox="0 0 170 170" fill="none" xmlns="http://www.w3.org/2000/svg">
<g clip-path="url(#clip0_319_16)">
<path d="M0 21.25C0 15.6141 2.23883 10.2091 6.22398 6.22398C10.2091 2.23883 15.6141 0 21.25 0L148.75 0C154.386 0 159.791 2.23883 163.776 6.22398C167.761 10.2091 170 15.6141 170 21.25V148.75C170 154.386 167.761 159.791 163.776 163.776C159.791 167.761 154.386 170 148.75 170H21.25C15.6141 170 10.2091 167.761 6.22398 163.776C2.23883 159.791 0 154.386 0 148.75V21.25ZM159.375 21.25C159.375 18.4321 158.256 15.7296 156.263 13.737C154.27 11.7444 151.568 10.625 148.75 10.625H21.25C18.4321 10.625 15.7296 11.7444 13.737 13.737C11.7444 15.7296 10.625 18.4321 10.625 21.25V148.75C10.625 151.568 11.7444 154.27 13.737 156.263C15.7296 158.256 18.4321 159.375 21.25 159.375H148.75C151.568 159.375 154.27 158.256 156.263 156.263C158.256 154.27 159.375 151.568 159.375 148.75V21.25Z" fill="#5E2EFF"/>
<path d="M46 44.957V34H125V44.957H91.8776V136H79.1224V44.957H46Z" fill="#5E2EFF"/>
<path d="M32.9393 141.939C32.3536 142.525 32.3536 143.475 32.9393 144.061L42.4853 153.607C43.0711 154.192 44.0208 154.192 44.6066 153.607C45.1924 153.021 45.1924 152.071 44.6066 151.485L36.1213 143L44.6066 134.515C45.1924 133.929 45.1924 132.979 44.6066 132.393C44.0208 131.808 43.0711 131.808 42.4853 132.393L32.9393 141.939ZM121 141.5L34 141.5L34 144.5L121 144.5L121 141.5Z" fill="#5E2EFF"/>
</g>
<defs>
<clipPath id="clip0_319_16">
<rect width="170" height="170" fill="white"/>
</clipPath>
</defs>
</svg>

<svg width="170" height="170" fill="none" viewBox="0 0 170 170" xmlns="http://www.w3.org/2000/svg"><g fill="#5E2EFF" clip-path="url(#prefix__a)"><path d="M0 21.25A21.25 21.25 0 0 1 21.25 0h127.5A21.25 21.25 0 0 1 170 21.25v127.5A21.25 21.25 0 0 1 148.75 170H21.25A21.25 21.25 0 0 1 0 148.75V21.25Zm159.375 0a10.623 10.623 0 0 0-10.625-10.625H21.25A10.625 10.625 0 0 0 10.625 21.25v127.5a10.625 10.625 0 0 0 10.625 10.625h127.5a10.624 10.624 0 0 0 10.625-10.625V21.25Z"/><path d="M46 44.957V34h79v10.957H91.878V136H79.122V44.957H46Zm-13.06 96.982a1.501 1.501 0 0 0 0 2.122l9.545 9.546a1.501 1.501 0 0 0 2.122-2.122L36.12 143l8.486-8.485a1.5 1.5 0 0 0-2.122-2.122l-9.546 9.546ZM121 141.5H34v3h87v-3Z"/></g><defs><clipPath id="prefix__a"><path fill="#fff" d="M0 0h170v170H0z"/></clipPath></defs></svg>
